assets/Closed mailbox with lowered flag/Flat/closed_mailbox_with_lowered_flag_flat.svg

<svg width="32" height="32" viewBox="0 0 32 32" fill="none" xmlns="http://www.w3.org/2000/svg">
<path d="M16.81 30.04V23.4L14.5 22L11.83 23.4V30.04H16.81Z" fill="#7D4533"/>
<path d="M21.65 7H7.84L11 23.61H15.81H21.65H25.99C26.8184 23.61 27.49 22.9384 27.49 22.11V12.84C27.48 9.61 24.87 7 21.65 7Z" fill="#5092FF"/>
<path d="M7.84 7C4.61 7 2 9.61 2 12.84V22.11C2 22.9384 2.67157 23.61 3.5 23.61H12.17C12.9984 23.61 13.67 22.9384 13.67 22.11V12.84C13.67 9.61 11.06 7 7.84 7Z" fill="#3F5FFF"/>
<path d="M9.27 20H4.98C4.44 20 4 20.44 4 20.98C4 21.52 4.44 21.96 4.98 21.96H9.27C9.81 21.96 10.25 21.52 10.25 20.98C10.26 20.44 9.82 20 9.27 20Z" fill="#1345B7"/>
<path d="M30 19.1315V13.8685C30 13.3929 29.6311 13 29.1845 13H26.8155C26.3689 13 26 13.3929 26 13.8685V19.1315C26 19.6071 26.3689 20 26.8155 20H29.1845C29.6311 20 30 19.6071 30 19.1315Z" fill="#F92F60"/>
<path d="M20.5163 14.63C20.0978 15.3533 19.3158 15.84 18.42 15.84C17.0835 15.84 16 14.7565 16 13.42C16 12.0835 17.0835 11 18.42 11C19.3157 11 20.0978 11.4866 20.5162 12.21H29.42C30.09 12.21 30.63 12.75 30.63 13.42C30.63 14.09 30.09 14.63 29.42 14.63H20.5163Z" fill="#D3D3D3"/>
</svg>

<svg xmlns="http://www.w3.org/2000/svg" width="32" height="32" fill="none"><path fill="#7D4533" d="M16.81 30.04V23.4L14.5 22l-2.67 1.4v6.64h4.98Z"/><path fill="#5092FF" d="M21.65 7H7.84L11 23.61H25.99a1.5 1.5 0 0 0 1.5-1.5v-9.27C27.48 9.61 24.87 7 21.65 7Z"/><path fill="#3F5FFF" d="M7.84 7C4.61 7 2 9.61 2 12.84v9.27a1.5 1.5 0 0 0 1.5 1.5h8.67a1.5 1.5 0 0 0 1.5-1.5v-9.27C13.67 9.61 11.06 7 7.84 7Z"/><path fill="#1345B7" d="M9.27 20H4.98c-.54 0-.98.44-.98.98s.44.98.98.98h4.29c.54 0 .98-.44.98-.98a.969.969 0 0 0-.98-.98Z"/><path fill="#F92F60" d="M30 19.131v-5.263c0-.475-.369-.868-.816-.868h-2.369c-.446 0-.815.393-.815.868v5.263c0 .476.369.869.816.869h2.369c.446 0 .815-.393.815-.869Z"/><path fill="#D3D3D3" d="M20.516 14.63A2.42 2.42 0 0 1 16 13.42a2.42 2.42 0 0 1 4.516-1.21h8.904c.67 0 1.21.54 1.21 1.21 0 .67-.54 1.21-1.21 1.21h-8.904Z"/></svg>
